X:1
T:Pomme de reinette et pomme d'api
C:Chanson pour enfants..., fichier abc : Bernard Loffet
L:1/8
Q:370
K:G
M:2/2
 [c2C,,2][c2C,2] [c2C,,2][c2C,2] | [dG,,]c[BG,]A [G2G,,2]G,2 | [GG,,]A[BG,]c [d2G,,2][g2G,2] | \
 [e2C,,2]C,2 [c2C,,2]C,2 | [c2C,,2][c2C,2] [c2C,,2][c2C,2] | [dG,,]c[BG,]A [G2G,,2]G,2 | \
 [gG,,]g[gG,]g [f2D,,2][d2D,2] | [g2G,,2]G,2 G,,2G,2 | [c2C,,2][cC,]c [c2C,,2][G2C,2] | \
 [c2C,,2][e2C,2] [g2C,,2]C,2 | [G2G,,2][g2G,2] [G2G,,2][g2G,2] | [e2C,,2]C,2 [c2C,,2]C,2 | \
 [c2C,,2][cC,]c [c2C,,2][G2C,2] | [c2C,,2][e2C,2] [g2C,,2]C,2 | [G2G,,2][g2G,2] [G2G,,2][g2G,2] | \
 [c2C,,2]C,2 C,,2C,2 | \
W:Created with TablEdit http://www.tabledit.com/ by Bernard Loffet
